public/svg/toggleBtnIcon.svg

<svg width="81" height="80" viewBox="0 0 81 80" fill="none" xmlns="http://www.w3.org/2000/svg">
<rect x="0.5" width="80" height="80" rx="40" fill="#F4F7FF"/>
<path d="M32.7054 28.8369C33.4755 28.3327 34.5085 28.5483 35.0127 29.3184C35.5169 30.0885 35.3013 31.1215 34.5312 31.6257C31.7248 33.4631 30.0003 36.583 30.0003 39.9992C30.0003 45.5221 34.4775 49.9992 40.0003 49.9992C45.5232 49.9992 50.0003 45.5221 50.0003 39.9992C50.0003 36.6584 48.3517 33.5987 45.6463 31.7442C44.887 31.2237 44.6935 30.1864 45.2139 29.4272C45.7343 28.6679 46.7717 28.4743 47.5309 28.9948C51.1337 31.4644 53.3337 35.5473 53.3337 39.9992C53.3337 47.363 47.3641 53.3325 40.0003 53.3325C32.6365 53.3325 26.667 47.363 26.667 39.9992C26.667 35.4467 28.9679 31.2838 32.7054 28.8369Z" fill="#1B5BF7"/>
<rect opacity="0.3" x="38.333" y="25" width="3.33333" height="16.6667" rx="1" fill="#1B5BF7"/>
</svg>

<svg xmlns="http://www.w3.org/2000/svg" width="81" height="80" fill="none" xmlns:v="https://vecta.io/nano"><rect x=".5" width="80" height="80" rx="40" fill="#f4f7ff"/><g fill="#1b5bf7"><path d="M32.705 28.837c.77-.504 1.803-.289 2.307.482s.289 1.803-.482 2.307C31.725 33.463 30 36.583 30 39.999c0 5.523 4.477 10 10 10s10-4.477 10-10c0-3.341-1.649-6.401-4.354-8.255-.759-.52-.953-1.558-.432-2.317s1.558-.953 2.317-.432c3.603 2.47 5.803 6.552 5.803 11.004 0 7.364-5.97 13.333-13.333 13.333s-13.333-5.97-13.333-13.333a13.32 13.32 0 0 1 6.038-11.162z"/><rect opacity=".3" x="38.333" y="25" width="3.333" height="16.667" rx="1"/></g></svg>
